X: 3237
T: Behind The Bush In The Garden
R: jig
M: 6/8
K: Adorian
|:B|c2A AGE|c2A AGE|G2A G2E|GAG GEG|
c2d e2a|g2e d2e|c2A BAG|A3 A2:|
|:B|c2B c2d|eag e2d|c2B c2d|e2G G2B|
[1c2B c2d|eag e2d|c2A BAG|A3 A2:|
[2c2d e2a|g2e d2e|c2A BAG|A3 A2||

